X: 29282
T: New Porch Swing, The
R: reel
M: 4/4
K: Dmajor
|:B3d cBcd-|dAAG FGA=c|B3d cegf-|fafe dGAB-|
BABd ceAd-|dcde fd=cA|GFEF GABc|dAGA GFD2:|
|:d2A=c2B2G|A2EG2FD2|~EDCB, CDEF|GABc defg-|
gBdg2feg|f2da2gfa|gfed cA2E|GFAG2FD2:|

